images/list-icon.svg

<svg fill="none" height="162" viewBox="0 0 160 162" width="160" xmlns="http://www.w3.org/2000/svg" xmlns:xlink="http://www.w3.org/1999/xlink"><clipPath id="a"><path d="m0 0h159.55v161.38h-159.55z"/></clipPath><g clip-path="url(#a)" fill="#ff8440"><path d="m86.87 77 3.11 5.13-89.98 54.63 29.87-136.76-3.51 44.2"/><path d="m29.87 0 129.68 161.38-148.85-66.58 2.45-5.47zm.71 97.12 108.72 48.63z"/></g></svg>

<svg width="160" height="162" viewBox="0 0 160 162" fill="none" xmlns="http://www.w3.org/2000/svg">
<g clip-path="url(#clip0)">
<path d="M86.87 77L89.98 82.13L0 136.76L29.87 0L26.36 44.2" fill="#FF8440"/>
<path d="M29.87 0L159.55 161.38L10.7 94.8L13.15 89.33L29.87 0ZM30.58 97.12L139.3 145.75Z" fill="#FF8440"/>
</g>
<defs>
<clipPath id="clip0">
<rect width="159.55" height="161.38" fill="white"/>
</clipPath>
</defs>
</svg>
